libs/assets/src/cow-swap/cow_token.svg

<svg xmlns="http://www.w3.org/2000/svg" fill="none" viewBox="0 0 400 400"><path fill="#F2CD16" d="M400 200C400 89.543 310.457 0 200 0S0 89.543 0 200s89.543 200 200 200 200-89.543 200-200Z"/><path fill="#544003" fill-rule="evenodd" d="M166.774 304a30.67 30.67 0 0 1-29.237-21.395l-20.779-65.494h-12.774a30.671 30.671 0 0 1-29.237-21.395L62.4 156.8h46.31L84.284 120h231.432l-24.425 36.8H337.6l-12.346 38.916c-4.041 12.74-15.87 21.395-29.237 21.395h-12.775l-20.778 65.494A30.67 30.67 0 0 1 233.227 304h-66.453Zm-15.698-104.778c0 9.88 7.378 17.889 16.478 17.889 9.101 0 16.479-8.009 16.479-17.889 0-9.88-7.378-17.889-16.479-17.889-9.1 0-16.478 8.009-16.478 17.889Zm97.849 0c0 9.88-7.378 17.889-16.478 17.889-9.101 0-16.479-8.009-16.479-17.889 0-9.88 7.378-17.889 16.479-17.889 9.1 0 16.478 8.009 16.478 17.889Z" clip-rule="evenodd"/></svg>

<svg width="400" height="400" viewBox="0 0 400 400" fill="none" xmlns="http://www.w3.org/2000/svg">
<rect width="400" height="400" rx="200" fill="#F2CD16"/>
<path fill-rule="evenodd" clip-rule="evenodd" d="M166.774 304C153.406 304 141.578 295.345 137.537 282.605L116.758 217.111H103.984C90.6163 217.111 78.7882 208.456 74.7467 195.716L62.4004 156.8L108.71 156.8L84.2844 120H315.716L291.291 156.8L337.6 156.8L325.254 195.716C321.213 208.456 309.384 217.111 296.017 217.111H283.242L262.464 282.605C258.423 295.345 246.595 304 233.227 304H166.774ZM151.076 199.222C151.076 209.102 158.454 217.111 167.554 217.111C176.655 217.111 184.033 209.102 184.033 199.222C184.033 189.342 176.655 181.333 167.554 181.333C158.454 181.333 151.076 189.342 151.076 199.222ZM248.925 199.222C248.925 209.102 241.547 217.111 232.447 217.111C223.346 217.111 215.968 209.102 215.968 199.222C215.968 189.342 223.346 181.333 232.447 181.333C241.547 181.333 248.925 189.342 248.925 199.222Z" fill="#544003"/>
</svg>
